X:143
%%pagewidth 7.5in
%%vocalfont Baskerville10Pro 11
T:The friar in the well
M:6/8
L:1/8
K:G
%%score 1 2
V:1 clef-treble
V:2 clef-bass octave=-1
V:1
"_p"D|[B,G]2[B,G] ([B,G][CA])[DB]|[CA]2[EG] [CE]3|"^Chorus."[B,B]2([DB] [Gc]d[Ge])|[GBd]2B G2"^Solo."D|
w:As I lay mus-*ing all a-lone, Fa la,*** la la la, A
V:2
z|G,6-|G,6|G,3E2C|G3-G2z|
V:1
[B,DG]2[B,^DG] [B,E(G]A)B|[CEA]2[B,^DG] [G,E]3|"^Chorus."[B,GB]2[FB] [EG(c]de)|[GBd]2B G2||
w:pret-ty jest,* I thought up-on, Fa* la,** la la la.
V:2
G,2F, E,3|A,2B, E3|E2D C3|G3-G2||
V:1
"^Solo."G|"_f"B2c (d>e)d&G6|[Gc]2B A2G|F2E F2[B,DG]&C3-C2x|[CEA][B,DG][A,CF] [CE]3|
w:Then listen a-*while, And I will tell Of a Friar that lov'd a bonny lass well,
V:2
z|{G,/}G2A B>cA|{G/}e2d c2B|{G,/}A2G A2z|x3F3&G,6|
V:1
"^Chorus.""_pp"D3[DG]3|[C(F]>E)F E3|D2G [CG]AF|[B,G]3-[B,G]2||
w:Fa la, la* la la, Fa la lang-tre down dilly.*
V:2
[G,GB]3B,3|A,3[CF]3|[B,G]3D3|G,3-G,2||

